X:790
T:(Danse des Paysans - concluded)
T:peasant dance from the Bj\/orgvin Diocese, Norway
C:John Malchair's Third Collection of Tunes
F:https://www.vwml.org/record/Malchair/3619/p79
F:www.vwml.org/topics/historic-dance-and-tune-books/Malchair
Z:Eric Conrad Mar 2020
N:NB1) Rest omitted in MS.
M:3/4
L:1/8
Q:"Allegro"
K:Ddor
P:A
|: A2d(^cde) | f2ed^c2 | (def)d(e^c) | (df)(e^c)A2 |
A2d(^cde) | f2ed^c2 | (ded)d(e^c) | cd4z :|
P:B
|: a2_baga | fefga2 | (d^cd)f(e^c) | d(fe)^cA2 |
a2_baga | fefgf2 | d^cdfe^c | cd4"_NB1"z :|

